brandFactory_export/3.Masa/(2)Euro_Moneda_3Masa.svg

<?xml version="1.0" encoding="UTF-8"?>
<svg width="24px" height="24px" viewBox="0 0 24 24" version="1.1" xmlns="http://www.w3.org/2000/svg" xmlns:xlink="http://www.w3.org/1999/xlink">
    <title>3.Masa/(2)Euro_Moneda_3Masa</title>
    <g id="Symbols" stroke="none" stroke-width="1" fill="none" fill-rule="evenodd">
        <g id="3.Masa/(2)Euro_Moneda_3Masa" fill="#5CB615" fill-rule="nonzero">
            <path d="M17.0857143,17.9394958 C16.0504202,18.4268908 14.7932773,18.6722689 13.3445378,18.6722689 C9.57983193,18.6722689 7.18655462,16.994958 6.41008403,13.8957983 L5.06554622,13.8957983 C4.66554622,13.8957983 4.34285714,13.5697479 4.34285714,13.1731092 C4.34285714,12.7731092 4.66890756,12.4504202 5.06554622,12.4504202 L6.17815126,12.4504202 C6.1512605,12.1310924 6.13109244,11.805042 6.13109244,11.4621849 C6.13109244,11.3142857 6.14117647,11.1731092 6.14789916,11.0319328 L5.06554622,11.0319328 C4.66554622,11.0319328 4.34285714,10.7058824 4.34285714,10.3092437 C4.34285714,9.91260504 4.66890756,9.58655462 5.06554622,9.58655462 L6.29579832,9.58655462 C6.9210084,6.13109244 9.36470588,4.25210084 13.3445378,4.25210084 C14.7731092,4.25210084 16.0201681,4.49411765 17.0453782,4.96806723 C17.4084034,5.13613445 17.5663866,5.56638655 17.3983193,5.92941176 C17.2302521,6.29243697 16.8,6.45042017 16.4369748,6.28235294 C15.6033613,5.89579832 14.5647059,5.70084034 13.3445378,5.70084034 C10.1647059,5.70084034 8.34621849,6.99159664 7.78487395,9.58991597 L12.1815126,9.58991597 C12.5815126,9.58991597 12.9042017,9.91596639 12.9042017,10.312605 C12.9042017,10.7092437 12.5781513,11.0352941 12.1815126,11.0352941 L7.60672269,11.0352941 C7.6,11.1831933 7.57647059,11.3142857 7.57647059,11.4655462 C7.57647059,11.8151261 7.61008403,12.1310924 7.64369748,12.4537815 L12.1815126,12.4537815 C12.5815126,12.4537815 12.9042017,12.7764706 12.9042017,13.1764706 C12.9042017,13.5764706 12.5781513,13.8991597 12.1815126,13.8991597 L7.9092437,13.8991597 C8.60168067,16.1277311 10.389916,17.2268908 13.3411765,17.2268908 C14.5714286,17.2268908 15.6235294,17.0252101 16.4638655,16.6319328 C16.8268908,16.4605042 17.2571429,16.6151261 17.4285714,16.9781513 C17.6,17.3378151 17.4453782,17.7714286 17.0857143,17.9394958 M11.8084034,0 C4.08403361,0 0,4.08403361 0,11.8151261 C0,19.5428571 4.08403361,23.6235294 11.8084034,23.6235294 C19.5394958,23.6235294 23.6235294,19.5394958 23.6235294,11.8151261 C23.6235294,4.08403361 19.5394958,0 11.8084034,0" id="(2)Euro_Moneda_3Masa"></path>
        </g>
    </g>
</svg>

<svg width="24" height="24" viewBox="0 0 24 24" xmlns="http://www.w3.org/2000/svg"><path d="M17.086 17.94c-1.036.487-2.293.732-3.741.732-3.765 0-6.158-1.677-6.935-4.776H5.066a.724.724 0 010-1.446h1.112c-.027-.319-.047-.645-.047-.988 0-.148.01-.289.017-.43H5.066a.724.724 0 010-1.445h1.23c.625-3.456 3.069-5.335 7.049-5.335 1.428 0 2.675.242 3.7.716a.724.724 0 11-.608 1.314c-.834-.386-1.872-.581-3.092-.581-3.18 0-4.999 1.29-5.56 3.889h4.397a.724.724 0 010 1.445H7.607c-.007.148-.03.28-.03.43 0 .35.033.666.067.989h4.538a.722.722 0 110 1.445H7.909c.693 2.229 2.48 3.328 5.432 3.328 1.23 0 2.283-.202 3.123-.595a.723.723 0 01.965.346.72.72 0 01-.343.961M11.808 0C4.084 0 0 4.084 0 11.815c0 7.728 4.084 11.809 11.808 11.809 7.731 0 11.816-4.085 11.816-11.809C23.624 4.084 19.539 0 11.808 0" fill="#5CB615" fill-rule="nonzero"/></svg>
